X: 1
T: Hey, Boys, Up Go We
O: England
Z: John Chambers <jc:trillian.mit.edu>
M: 6/8
K: C
|: c | "G"d2d d2c | B2c d2G | "F"A2A "G7"BAB | "C"c3- c2 :: E || "F"F>GF "C"EDE | "G7"D2B BAB |
| "C"c2G "G7"AG2 | "C"E3 CDE | "F"F>GF "C"EDE | "G7"D2B BAB | "C"c2G "G7"AG2 | "C"E3 C3 :|
